brandFactory_export/2.Regular/Prepago_2Regular.svg

<?xml version="1.0" encoding="UTF-8"?>
<svg width="24px" height="24px" viewBox="0 0 24 24" version="1.1" xmlns="http://www.w3.org/2000/svg" xmlns:xlink="http://www.w3.org/1999/xlink">
    <title>2.Regular/Prepago_2Regular</title>
    <g id="Symbols" stroke="none" stroke-width="1" fill="none" fill-rule="evenodd">
        <g id="2.Regular/Prepago_2Regular" fill="#5CB615" fill-rule="nonzero">
            <path d="M17.0857143,-8.8817842e-13 C18.4168067,-8.8817842e-13 19.3848739,0.322689076 20.0504202,0.991596639 C20.7159664,1.6605042 21.0352941,2.62521008 21.0352941,3.94957983 L21.0352941,19.6806723 C21.0352941,21.0184874 20.7092437,21.9932773 20.0436975,22.6554622 C19.3815126,23.3109244 18.4134454,23.6302521 17.0857143,23.6302521 L9.22016807,23.6302521 C7.89243697,23.6302521 6.92436975,23.3109244 6.26218487,22.6554622 C5.59327731,21.9932773 5.27058824,21.0184874 5.27058824,19.6806723 L5.27024535,15.4058293 C3.72258983,15.2987469 2.49349622,14.8140456 1.61008403,13.9630252 C0.561344538,12.9512605 0.0302521009,11.4554622 0.0302521009,9.51260504 C0.0302521009,7.5697479 0.561344538,6.07394958 1.61008403,5.06218487 C2.49503695,4.20968024 3.7268781,3.72477359 5.27834587,3.61882395 C5.32903523,2.48161016 5.65090036,1.62889883 6.25882353,1.01176471 C6.93445378,0.332773109 7.90252101,-8.8817842e-13 9.22016807,-8.8817842e-13 L17.0857143,-8.8817842e-13 Z M17.0857143,1.34453782 L9.22016807,1.34453782 C7.48563642,1.34453782 6.71273788,2.01028382 6.62386409,3.61938419 C8.17145471,3.72709734 9.39951852,4.21172105 10.2823529,5.06218487 C11.3310924,6.07394958 11.8621849,7.5697479 11.8621849,9.51260504 C11.8621849,11.4554622 11.3310924,12.9512605 10.2823529,13.9630252 C9.39759262,14.8153443 8.16609502,15.3002254 6.61510399,15.4063169 L6.61512605,19.6806723 C6.61512605,21.5798319 7.3210084,22.2857143 9.22016807,22.2857143 L17.0857143,22.2857143 C18.9848739,22.2857143 19.6907563,21.5798319 19.6907563,19.6806723 L19.6907563,3.94957983 C19.6907563,2.99831933 19.4957983,2.3394958 19.0991597,1.9394958 C18.702521,1.5394958 18.0403361,1.34453782 17.0857143,1.34453782 Z M13.1563025,18.1546218 C13.9932773,18.1546218 14.4907563,18.6554622 14.4907563,19.492437 C14.4907563,19.902521 14.3731092,20.2285714 14.1445378,20.4638655 C13.9159664,20.6991597 13.5663866,20.8302521 13.1529412,20.8302521 C12.7428571,20.8302521 12.4,20.702521 12.1680672,20.4638655 C11.9361345,20.2252101 11.8218487,19.8991597 11.8218487,19.492437 C11.8218487,18.6554622 12.3193277,18.1546218 13.1563025,18.1546218 Z M5.94621849,4.94117647 C4.43697479,4.94117647 3.29411765,5.30756303 2.54453782,6.0302521 C1.76806723,6.77647059 1.37478992,7.94957983 1.37478992,9.51260504 C1.37478992,11.0756303 1.76806723,12.2487395 2.54453782,12.994958 C3.29411765,13.7176471 4.44033613,14.0840336 5.94621849,14.0840336 C7.45210084,14.0840336 8.59831933,13.7176471 9.34789916,12.994958 C10.1243697,12.2487395 10.5176471,11.0756303 10.5176471,9.51260504 C10.5176471,7.94957983 10.1243697,6.77647059 9.34789916,6.0302521 C8.59831933,5.30756303 7.45546218,4.94117647 5.94621849,4.94117647 Z M5.94621849,5.49579832 C6.17815126,5.49579832 6.36638655,5.68403361 6.36638655,5.91596639 L6.36654981,6.28837159 C6.81333213,6.3425494 7.22678571,6.4793855 7.56302521,6.68571429 C7.80840336,6.83697479 7.84537815,7.03529412 7.84537815,7.1394958 C7.84537815,7.40840336 7.6302521,7.62352941 7.36134454,7.62352941 C7.2605042,7.62016807 7.16302521,7.59327731 7.0789916,7.54621849 L7.07226891,7.54285714 C6.83307962,7.41295262 6.6014797,7.32478962 6.36660607,7.27604035 L6.3662521,9.021 L6.46253035,9.03522229 C7.88069451,9.28442757 8.18823529,10.1354768 8.18823529,10.8235294 C8.18823529,11.3983193 7.97647059,11.8823529 7.57983193,12.2285714 C7.27073974,12.4942374 6.85875874,12.6647798 6.3674938,12.7313468 L6.36638655,13.1260504 C6.36638655,13.3579832 6.17815126,13.5462185 5.94621849,13.5462185 C5.71428571,13.5462185 5.52605042,13.3579832 5.52605042,13.1260504 L5.52583614,12.7416952 C4.95951838,12.6785458 4.41654135,12.4772667 3.94285714,12.1512605 C3.78487395,12.0403361 3.70756303,11.8957983 3.70756303,11.7142857 C3.71092437,11.4386555 3.93277311,11.2201681 4.20840336,11.2235294 C4.32268908,11.2268908 4.43361345,11.2605042 4.52773109,11.3243697 C4.85995034,11.5450583 5.19384485,11.6886851 5.52586659,11.7540676 L5.52495344,9.90865456 C4.15022373,9.65553482 3.85210084,8.8227828 3.85210084,8.1512605 C3.85210084,7.13280522 4.49696526,6.43280151 5.52496037,6.28940346 L5.52605042,5.91596639 C5.52605042,5.68403361 5.71428571,5.49579832 5.94621849,5.49579832 Z M6.3673424,10.0369954 L6.36676303,11.7529277 C6.88564706,11.6423529 7.19327731,11.3196639 7.19327731,10.8571429 C7.19327731,10.5252119 7.08546335,10.2009819 6.3673424,10.0369954 Z M4.84705882,8.10756303 C4.84705882,8.30206776 4.84705882,8.67387318 5.52508008,8.87603858 L5.52525783,7.27429812 C5.0943688,7.38101704 4.84705882,7.67674739 4.84705882,8.10756303 Z" id="Prepago_2Regular"></path>
        </g>
    </g>
</svg>

<svg width="24" height="24" viewBox="0 0 24 24" xmlns="http://www.w3.org/2000/svg"><path d="M17.086 0c1.33 0 2.299.323 2.964.992.666.669.985 1.633.985 2.958v15.73c0 1.338-.326 2.313-.991 2.975-.662.656-1.63.975-2.958.975H9.22c-1.328 0-2.296-.32-2.958-.975-.669-.662-.991-1.637-.991-2.974v-4.275c-1.548-.107-2.778-.592-3.66-1.443C.56 12.951.03 11.455.03 9.513c0-1.943.53-3.44 1.58-4.45.884-.853 2.116-1.338 3.667-1.444.051-1.137.373-1.99.98-2.607C6.935.332 7.904 0 9.22 0h7.866zm0 1.345H9.22c-1.734 0-2.507.665-2.596 2.274 1.547.108 2.776.593 3.658 1.443 1.05 1.012 1.58 2.508 1.58 4.45 0 1.943-.53 3.44-1.58 4.451-.884.852-2.116 1.337-3.667 1.443v4.275c0 1.899.706 2.605 2.605 2.605h7.866c1.899 0 2.605-.706 2.605-2.605V3.95c0-.952-.195-1.61-.592-2.01-.396-.4-1.059-.595-2.013-.595zm-3.93 16.81c.837 0 1.335.5 1.335 1.337 0 .41-.118.737-.346.972-.229.235-.579.366-.992.366-.41 0-.753-.127-.985-.366-.232-.239-.346-.565-.346-.972 0-.837.497-1.337 1.334-1.337zM5.946 4.94c-1.509 0-2.652.367-3.401 1.09-.777.745-1.17 1.919-1.17 3.482 0 1.563.393 2.736 1.17 3.482.75.723 1.895 1.089 3.401 1.089 1.506 0 2.652-.366 3.402-1.089.776-.746 1.17-1.92 1.17-3.482 0-1.563-.394-2.737-1.17-3.483-.75-.722-1.893-1.089-3.402-1.089zm0 .555a.42.42 0 01.42.42v.372c.447.055.86.191 1.197.398.245.151.282.35.282.453a.482.482 0 01-.484.485.622.622 0 01-.282-.078l-.007-.003c-.239-.13-.47-.218-.705-.267v1.745l.096.014c1.418.25 1.725 1.1 1.725 1.789 0 .574-.212 1.058-.608 1.405-.31.265-.721.436-1.213.502v.395a.42.42 0 01-.84 0l-.001-.384a3.467 3.467 0 01-1.583-.59.508.508 0 01-.235-.438.494.494 0 01.5-.49.598.598 0 01.32.1c.332.221.666.365.998.43L5.525 9.91C4.15 9.656 3.852 8.823 3.852 8.15c0-1.018.645-1.718 1.673-1.862l.001-.373a.42.42 0 01.42-.42zm.421 4.541v1.716c.519-.11.826-.433.826-.896 0-.332-.108-.656-.826-.82zm-1.52-1.93c0 .195 0 .567.678.769V7.274c-.43.107-.678.403-.678.834z" fill="#5CB615" fill-rule="nonzero"/></svg>
